packages/ui-icons/svg/Solid/question.svg

<svg viewBox="0 0 1920 1920" version="1.1" xmlns="http://www.w3.org/2000/svg">
    <path d="M960,1242.34165 C1022.23059,1242.34165 1072.94118,1293.05224 1072.94118,1355.28282 C1072.94118,1417.51341 1022.23059,1468.224 960,1468.224 C897.769412,1468.224 847.058824,1417.51341 847.058824,1355.28282 C847.058824,1293.05224 897.769412,1242.34165 960,1242.34165 Z M1049.33647,350.332235 C1164.19765,380.035765 1257.6,473.438118 1287.30353,588.299294 C1310.68235,678.765176 1298.03294,771.602824 1251.84,849.758118 C1206.32471,926.896941 1130.65412,983.706353 1044.25412,1005.84282 C1030.47529,1009.45694 1016.47059,1020.63812 1016.47059,1037.80518 L1016.47059,1129.40047 L903.529412,1129.40047 L903.529412,1037.80518 C903.529412,971.621647 949.835294,913.569882 1016.24471,896.515765 C1073.84471,881.720471 1124.21647,843.772235 1154.59765,792.384 C1185.43059,740.092235 1193.78824,677.748706 1177.97647,616.534588 C1158.32471,540.864 1096.77176,479.311059 1021.10118,459.659294 C950.174118,441.475765 877.665882,455.706353 821.76,498.962824 C766.08,542.106353 734.117647,607.273412 734.117647,677.635765 L621.176471,677.635765 C621.176471,572.035765 669.063529,474.341647 752.64,409.626353 C836.329412,344.798118 944.414118,323.339294 1049.33647,350.332235 Z M960,-0.0112941176 C430.644706,-0.0112941176 0,430.633412 0,959.988706 C0,1489.344 430.644706,1919.98871 960,1919.98871 C1489.46824,1919.98871 1920,1489.344 1920,959.988706 C1920,430.633412 1489.46824,-0.0112941176 960,-0.0112941176" stroke="none" stroke-width="1" fill-rule="evenodd"/>
</svg>

<svg viewBox="0 0 1920 1920" version="1.1" xmlns="http://www.w3.org/2000/svg">
    <path d="M1251.84 849.758c-45.515 77.139-121.186 133.948-207.586 156.085-13.779 3.614-27.783 14.795-27.783 31.962v91.595H903.529v-91.595c0-66.183 46.306-124.235 112.716-141.29 57.6-14.795 107.971-52.743 138.353-104.131 30.833-52.292 39.19-114.635 23.378-175.85-19.651-75.67-81.204-137.223-156.875-156.875-70.927-18.183-143.435-3.953-199.341 39.304-55.68 43.143-87.642 108.31-87.642 178.673H621.176c0-105.6 47.888-203.294 131.464-268.01 83.69-64.828 191.774-86.287 296.696-59.294 114.862 29.704 208.264 123.106 237.968 237.967 23.378 90.466 10.729 183.304-35.464 261.46zM960 1468.224c-62.23 0-112.941-50.71-112.941-112.941 0-62.23 50.71-112.941 112.941-112.941 62.23 0 112.941 50.71 112.941 112.94 0 62.231-50.71 112.942-112.941 112.942zM960-.011c-529.355 0-960 430.644-960 960 0 529.355 430.645 960 960 960 529.468 0 960-430.645 960-960 0-529.356-430.532-960-960-960" stroke="none" stroke-width="1" fill-rule="evenodd"/>
</svg>
